X:0249
T:La Polonese.
M:2/4
L:1/16
Q:1/4=120
I: :: ::
Z:Jack Campin * www.campin.me.uk * 2009
K:G
G2BG ({G}F2)ED|G2BG ({G}F2)ED|d2d2 cBAG|A2A2 GFED|
G2BG ({G}F2)ED|G2BG  {G}F2ED |GABc defg|dBAB G4 :|
Bcde     d2ef |agfe     d4   |Bcde edcB|AGAB A2D2|
Bcde    d2ef |agfe      d4   |Bcde edcB|AGAB G4 :|
<end>
<start>
